img/auth-facebook.svg

<svg width="26" height="25" viewBox="0 0 26 25" fill="none" xmlns="http://www.w3.org/2000/svg">
<path d="M0.879883 12.48C0.879883 5.58749 6.46737 0 13.3599 0C20.2524 0 25.8399 5.58749 25.8399 12.48C25.8399 19.3725 20.2524 24.96 13.3599 24.96C6.46737 24.96 0.879883 19.3725 0.879883 12.48Z" fill="#3B5998"/>
<path d="M14.6607 19.818V13.0282H16.535L16.7833 10.6884H14.6607L14.6639 9.51729C14.6639 8.90704 14.7219 8.58005 15.5984 8.58005H16.7701V6.23999H14.8955C12.6439 6.23999 11.8514 7.37504 11.8514 9.28384V10.6886H10.4479V13.0284H11.8514V19.818H14.6607Z" fill="white"/>
</svg>

<svg width="26" height="25" fill="none" xmlns="http://www.w3.org/2000/svg"><path d="M.88 12.48C.88 5.587 6.467 0 13.36 0c6.892 0 12.48 5.587 12.48 12.48 0 6.892-5.588 12.48-12.48 12.48C6.467 24.96.88 19.372.88 12.48Z" fill="#3B5998"/><path d="M14.66 19.818v-6.79h1.875l.248-2.34h-2.122l.003-1.17c0-.611.058-.938.934-.938h1.172V6.24h-1.874c-2.252 0-3.045 1.135-3.045 3.044v1.405h-1.403v2.34h1.403v6.789h2.81Z" fill="#fff"/></svg>
